!!!OTL: Anna im Grabe (54a), S. 172
!!!id: T0195
**kern
*clefG2
*k[f#c#g#]
*A:
{4e
=1
4a
4cc#
4e
4a
=2
4c#
8e
8a
4a}
=3
{8a
8a
=4
4g#
4a
4b
8cc#
8a
=5
4b}
2r
=6
{4e
=7
4.dd
8cc#
4b
8cc#
8dd
=8
4.ee
8a
4a}
=9
{8a
8g#
=10
4f#
8dd
8b
4cc#
4b
=11
4a}
2r
==
*-
!!!minrhy: 8
!!!meters: 4/4 ]  ZZ[4
!!!cut: Anna im Grabe (54a), S. 172
!!!reg: Luxemburg
!!!trd: Singendes Volk, Esch-Alzette 1937 posth.
!!!rhy1: X_  X_X_X_X_  X_XXX_
!!!rhy2: XX  X_X_X_XX  X_0__
!!!key: T0195  08  A 4/4 ]  ZZ[4
!!!mod: HEPTATONIK IONISCH]  AMBITUS[10b
!!!kad: 1211
!!!akz: 1-5-31_-722_4251_-631_
!!!fot: 'a__b__c__d__
!!!for: 'a__b__c__d__
!!!fok: '/__/__Ma_S__
!! PHRAS[AUFTAKTIG]
!!!fkt: Liebeslieder
!!!bem: Boxhorn, mitgeteilt: hhh Heinrich Godefroid (Lehrer)
!! THILL, Mathias:
!! PR[12] 2K[3] 2G[9] 3K[3] 3G[3] 4A[12] 4Ü[0] 5A[0] 6K[3] 6G[0]
!! 7K[3] 7G[0] 8A[0] MEHR[0] SI[36] ABS[33] SR[12] SP[24]
!! ST[8] 2k[12] 2g[24] 3k[6] 3g[0] 4d[3] 4ü[0] 5d[3] 6k[0] 6g[3]
!! 7k[0] 7g[0] 8d[0] mehr[0] si[52] dm[-16] sr[36] sp[15]
!! 1F[39] 2F[50] 3F[6] 4F[0] LF[0] 2P[6] 3P[0] 4P[0] TRI[0] DF[4] AB[36]
!! TF[0] U3K[0] U3[0] U4[0] U4Ü[0] U5[21] U6K[0] U6[9] U7K[0] U7[3]
!! N1[21] N2K[0] N2[18] N3K[0] N3[15] N4[12] N4Ü[0] N5[3] N6K[0] N6[0]
!!!n7k: 0] N7[0] O1[0] O2K[0] O2[0] O3K[0] O3[0] HÖ[0
